X:1
T: Bricklayer's Hornpipe
C:
R:Reel
Q: 232
K:F
M:4/4
L:1/8
|:AB|c=B cA FA cf|fe ge c2AB|cA dc BG cB|AF BG FE DC|
c=B cA FA cf|fe ge ce gb|ba ag gf fe|g2f2 f2:|
|:EF|G^F GE CE GB|BA cA FA cf|df cf df cf|df ba gf ed|
c=B cA FA cf|fe ge ce gb|ba ag gf fe|g2f2 f2:|
